X:1
L:1/4
Q:1/4=200
M:6/8
V:1
V:2 clef=bass
K:F
[V:1] [A,^CE]3/4 z/4 [A,^CE]3/4 z/4 [DF]/[=B,D]/ | [A,^CE]/ z3/2 A/=c/ | [FAd]3/4 z/4 [FAd]3/4 z/4 [FAd]/[Ace]/ | [Bdf]3/4 z/4 [Bdf]3/4 z/4 [Bdf]/[dg]/ |
[V:2] [A,,,A,,]3/4 z/4 [A,,,A,,]/ [A,,,A,,]3/4 z/4 [A,,,A,,]/ | [A,,,A,,]3/4 z/4 [A,,,A,,]/ [A,,,A,,]3/4 z/4 [A,,,A,,]/ | [D,,D,]3/4 z/4 [D,,D,]/ [D,,D,]3/4 z/4 [C,,C,]/ | [B,,,B,,]3/4 z/4 [B,,,B,,]/ [B,,,B,,]3/4 z/4 [B,,,B,,]/ |